X:1
T:Schäfers Sonntagslied
T:Conradin Kreutzer
T:Ludwig Uhland
T:Schäfers Sonntagslied
T:CPDL - Creative Commons Attribution Non Commercial 3.0
T:CPDL - Creative Commons Attribution Non Commercial 3.0
T:CPDL - Creative Commons Attribution Non Commercial 3.0
T:CPDL - Creative Commons Attribution Non Commercial 3.0
C:Conradin Kreutzer
Z:Ludwig Uhland
Z:CPDL - Creative Commons Attribution Non Commercial 3.0
%%score [ 1 2 ( 3 4 ) ]
L:1/8
Q:1/4=90
M:4/4
K:C
V:1 treble-8 nm="Tenor\n1"
V:2 treble-8 nm="Tenor\n2"
V:3 bass nm="Bass"
V:4 bass 
V:1
"^Maestoso e con fuoco"!ff! e2 | c3 c .d2 .e2 | !fermata!f6 e2 | d3 d .e2 .d2 | !fermata!c8 | z8 | %6
w: 1.~Das|ist der Tag des|Herrn! Das|ist der Tag des|Herrn!||
 z4 z!p! e e>e | !>!e3 e .e2 .e2 | e4 z2 e2 | !>!d3 .d .d.d.e.d | d2 z!pp! d dd z2 | dd z2 dded | %12
w: Ich bin a-|lein auf wei- ter|Flur; noch|ei- ne Mor- gen- glo- cke|nur, noch ei- ne,|ei- ne Mor- gen- glo- cke|
 B4 z2!pp! G2 | !>!e3 c B2 G2 | c8- | c8- | c6"^Tutti"!ff! c2 | c8 | d8 | !>!c6 _B2 | %20
w: nur! nun|Stil- le nah und|fern.|_|* An-|be-|tend|knie ich|
 A4 z2"^Solo"!p! f2 |!<(! e6!<)!!>(!{fe} de!>)! | (!>!f4 c2) z c |!<(! (c2 e2!<)!!>(! g2) _B2!>)! | %24
w: hier. O|sü- ßes *|Grau'n! _ ge-|hei- * * mes|
!pp! (_B4 A2) z c | f3"^cresc." f f3 e |!<(! e3 d d2!<)!!f! d2 |!>(! d3 c!>)! c2 E2 | %28
w: Weh'n! _ als|knie- ten vie- le|un- ge- seh'n und|be- te- ten mit|
 F2 z2 z2!p! A2 | (d4 c2) G2 | (_B2 A2) z2 A2 |[Q:1/4=88]"^calando"{e} (d4 c2) E2 | %32
w: mir. O|sü- * ßes|Grau'n! _ ge|hei- * mes|
 F4 z2!mf![Q:1/4=100]"^Lebhafter" A2 | .d2 .d2 !>!f3 f | d4 z"^cresc." ddd | g4 z2 f2 | %36
w: Weh'n! Der|Him- mel, nah und|fern, er ist so|klar und|
 e3 c c2!f! e2 |[Q:1/4=80]"^Adagio" ^f4 z .f .f>f |!ff! g3 G !fermata!G2 | %39
w: fei- er- lich, so|ganz, als wollt' er|öff- nen sich.|
!ff![Q:1/4=90]"^Tempo I" e2 c3 c .d2 .e2 | !fermata!f6!f! e2 | d3 d .e2 .d2 | !fermata!c6 |] %43
w: Das ist der Tag des|Herrn, das|ist der Tag des|Herrn!|
V:2
!ff! c2 | c3 c .B2 .c2 | !fermata!c6 c2 | c3 c .c2 .B2 | !fermata!G8 | z8 | z4 z!p! B B>c | %7
w: 1.~Das|ist der Tag des|Herrn! Das|ist der Tag des|Herrn!||Ich bin a-|
 !>!d3 d .c2 .B2 | c4 z2 c2 | !>!c3 .c .c.c.c.c | B2 z!pp! B cc z2 | BB z2 ccAA | G4 z4 | %13
w: lein auf wei- ter|Flur; noch|ei- ne Mor- gen- glo- cke|nur, noch ei- ne,|ei- ne Mor- gen- glo- cke|nur!|
 z4 z2!pp! f2 | e2 f2 e2 d2 | c2 A2 G2 F2 | (G4 A2)!ff! _B2 | A8 | _B8 | !>!G6 G2 | F4 z2!p! c2 | %21
w: nun|Stil- le nah, nun|Stil- le nah und|fern. _ An-|be-|tend|knie ich|hier. O|
!<(! c6!<)!!>(! c2!>)! | !>!c6 z c |!<(! c6!<)!!>(! c2!>)! |!pp! c6 z c | c3"^cresc." c ^c3 c | %26
w: sü- ßes|Grau'n! ge-|hei- mes|Weh'n! als|knie- ten vie- le|
!<(! ^c3 d d2!<)!!f! ^G2 |!>(! A3 A!>)! =G2 _B2 | A2 z2 z4 | z2!p! _B2 G2 c2 | c4 z4 | %31
w: un- ge- seh'n und|be- te- ten mit|mir.|O sü- ßes|Grau'n!|
 z2 _B2 G2 B2 | A4 z2!mf! A2 | .A2 .A2 !>!d3 d | =B4 z"^cresc." BBB | c4 z2 d2 | c3 G G2!f! c2 | %37
w: ge- hei- mes|Weh'n! Der|Him- mel, nah und|fern, er ist so|klar und|fei- er- lich, so|
 d4 z .d .d>d |!ff! d3 G !fermata!G2 |!ff! c2 c3 c .B2 .c2 | !fermata!c6!f! c2 | c3 c .c2 .B2 | %42
w: ganz, als wollt' er|öff- nen sich.|Das ist der Tag des|Herrn, das|ist der Tag des|
 !fermata!G6 |] %43
w: Herrn!|
V:3
!ff! G,2 | G,3 G, .G,2 .G,2 | !fermata!A,6 G,2 | A,3 A, .G,2 G,F, | !fermata!E,8 | z8 | %6
w: ||||||
 z4 z!p! ^G, G,>A, | !>!B,3 B, .A,2 .^G,2 | A,4 z2 A,2 | !>!A,3 .A, .A,.A,.A,.A, | %10
w: ||||
 G,2 z!pp! G, A,A, z2 | G,G, z2 ^F,F,F,F, | G,4 z4 | z4 z2!pp! B,2 | C2 A,2 G,2 F,2 | %15
w: |||||
 E,2 F,2 E,2 D,2 | (E,4 F,2)!ff! E,2 | F,8 | F,8 | !>!E,6 E,2 | C,4 z2!p! A,2 | %21
w: ||||||
!<(! _B,6!<)!!>(! B,2!>)! | (!>!A,2 C2 A,2) z A, |!<(! _B,6!<)!!>(! G,2!>)! |!pp! (G,4 A,2) z A, | %25
w: ||||
 A,3"^cresc." A, G,3 G, |!<(! G,3 F, F,2!<)!!f! F,2 |!>(! F,3 F,!>)! E,2 G,2 | %28
w: |||
 F,2!p! z2 z2!p! F,2 | (F,4 E,2) E,2 | (E,2 F,2) z2 F,2 | (F,4 E,2) G,2 | F,4 z2!mf! F,2 | %33
w: * O|sü- * ßes|Graun, _ ge|hei- * mes||
 .F,2 .F,2 !>!A,3 A, | =B,4 z"^cresc." G,G,G, | G,4 z2 G,2 | G,3 E, E,2!f! C2 | C4 z .C .C>C | %38
w: |||||
!ff! B,3 G, !fermata!G,2 |!ff! G,2 G,3 G, .G,2 .G,2 | !fermata!A,6!f! G,2 | A,3 A, .G,2 G,F, | %42
w: ||||
 !fermata!E,6 |] %43
w: |
V:4
 C,2 | E,3 E, .D,2 .C,2 | F,6 C,2 | F,3 F, .G,2 .G,,2 | C,8 | z4 z!p! E, E,>E, | E,8- | %7
w: |||||Ich bin a-|lein|
 E,3 x2 E,E,E, | A,,4 x2 A,=G, | !>!^F,3 .F, .F,.F,.F,.F, | G,2 x G, ^F,F, x2 | G,G, x2 D,D,D,D, | %12
w: * auf wei- ter|Flur; * *||||
 G,,4 x4 | x4 x2 G,2 | C,2 C,2 z2 C,>C, | C,4 z2 C,>C, | (C,2 _B,,2 A,,2) G,,2 | F,,8 | _B,,8 | %19
w: |nun|Stil- le nah und|fern, nah und|fern. _ _ _|_||
 !>!C,6 C,2 | F,,4 x2 F,2 | (G,2 C,2 G,2) G,2 | (F,2 A,2 F,2) x F, | (G,2 E,2 C,2) E,2 | %24
w: |||||
 (E,4 F,2) x F, | F,3 A,, A,,3 A,, | _B,,3 B,, B,,2 =B,,2 | C,3 C, C,2 C,2 | F,,2 F,2 A,2 F,2 | %29
w: ||||* O sü- ßes,|
 (_B,,4 C,2) C,2 | (C,2 F,)F, A,2 F,F, | (_B,,4 C,2) C,2 | F,,4 x2 F,2 | .D,2 .D,2 !>!D,3 D, | %34
w: sü- * ßes|Graun, _ ge- hei- mes, ge-|hei- * mes|Weh'n! *||
 G,4 x F,F,F, | E,4 x2 =B,,2 | C,3 C, C,2 C2 | A,4 x .A, .A,>A, | G,3 G,, G,,2 | %39
w: |||||
 C,2 E,3 E, .D,2 .C,2 | F,6 C,2 | F,3 F, .G,2 .G,,2 | C,6 |] %43
w: ||||

